src/48x48/places/folder-gruvbox-material-aqua-github.svg

<svg xmlns="http://www.w3.org/2000/svg" width="48" height="48" version="1">
 <rect style="opacity:0.2" width="40" height="26" x="4" y="17" rx="2" ry="2"/>
 <path style="fill:#4c7a5d" d="M 4,34 C 4,35.108 4.892,36 6,36 H 42 C 43.108,36 44,35.108 44,34 V 12 C 44,10.892 43.108,10 42,10 H 24 C 21,10 20,6 17,6 H 6 C 4.892,6 4,6.892 4,8"/>
 <rect style="opacity:0.2" width="40" height="26" x="4" y="15" rx="2" ry="2"/>
 <rect style="fill:#DBE3C7" width="36" height="16" x="6" y="13" rx="2" ry="2"/>
 <rect style="fill:#89b482" width="40" height="26" x="4" y="16" rx="2" ry="2"/>
 <path style="opacity:0.1;fill:#DBE3C7" d="M 6,6 C 4.892,6 4,6.892 4,8 V 9 C 4,7.892 4.892,7 6,7 H 17 C 20,7 21,11 24,11 H 42 C 43.108,11 44,11.892 44,13 V 12 C 44,10.892 43.108,10 42,10 H 24 C 21,10 20,6 17,6 Z"/>
 <path style="fill:#414A42" d="m 24,21 c -4.432,0 -8,3.568 -8,8 0,3.572969 2.319953,6.580128 5.541016,7.613281 v -1.662109 c -2.02505,0.44688 -2.451172,-0.890625 -2.451172,-0.890625 -0.33119,-0.85462 -0.808594,-1.082031 -0.808594,-1.082031 -0.66103,-0.45857 0.04883,-0.451172 0.04883,-0.451172 0.73072,0.05219 1.115234,0.763672 1.115234,0.763672 0.649401,1.13032 1.704391,0.804594 2.119141,0.615234 0.06615,-0.47773 0.255071,-0.805404 0.462891,-0.990234 -1.6165,-0.1867 -3.017578,-1.220416 -3.017578,-4.055016 0,-0.807401 0.586534,-1.867737 1.052234,-2.384438 -0.0751,-0.1871 -0.326088,-1.339321 0.07031,-2.357421 0,0 0.03819,-0.01202 0.117188,-0.01563 0.2369,-0.0111 0.7698,0.43835 1.8125,1.15625 0.629544,-0.180863 1.435033,-0.265432 1.938,-0.269532 0.567132,-0.0047 1.223838,0.09289 1.815614,0.269532 1.043,-0.7179 1.709313,-1.169203 1.945313,-1.158204 h 0.002 c 0.0789,0.0037 0.117187,0.01563 0.117188,0.01563 0.39732,1.01806 0.146905,2.172275 0.07227,2.359374 C 28.418904,26.993362 29,28.053598 29,28.861 c 0,2.84182 -1.700866,3.866146 -3.322266,4.049156 0.261006,0.2284 0.326172,0.681284 0.326172,1.371094 0,0.83312 -0.0021,1.37464 -0.0039,1.71875 v 0.740234 C 29.456574,35.855553 32,32.739916 32,29 32,24.568 28.432,21 24,21 Z"/>
</svg>

<?xml version="1.0" encoding="UTF-8"?>
<svg width="48" height="48" version="1" xmlns="http://www.w3.org/2000/svg">
 <rect x="4" y="17" width="40" height="26" rx="2" ry="2" opacity=".2"/>
 <path d="m4 34c0 1.108 0.892 2 2 2h36c1.108 0 2-0.892 2-2v-22c0-1.108-0.892-2-2-2h-18c-3 0-4-4-7-4h-11c-1.108 0-2 0.892-2 2" fill="#4c7a5d"/>
 <rect x="4" y="15" width="40" height="26" rx="2" ry="2" opacity=".2"/>
 <rect x="6" y="13" width="36" height="16" rx="2" ry="2" fill="#DBE3C7"/>
 <rect x="4" y="16" width="40" height="26" rx="2" ry="2" fill="#89b482"/>
 <path d="m6 6c-1.108 0-2 0.892-2 2v1c0-1.108 0.892-2 2-2h11c3 0 4 4 7 4h18c1.108 0 2 0.892 2 2v-1c0-1.108-0.892-2-2-2h-18c-3 0-4-4-7-4z" fill="#DBE3C7" opacity=".1"/>
 <path d="m24 21c-4.432 0-8 3.568-8 8 0 3.573 2.32 6.5801 5.541 7.6133v-1.6621c-2.025 0.44688-2.4512-0.89062-2.4512-0.89062-0.33119-0.85462-0.80859-1.082-0.80859-1.082-0.66103-0.45857 0.04883-0.45117 0.04883-0.45117 0.73072 0.05219 1.1152 0.76367 1.1152 0.76367 0.6494 1.1303 1.7044 0.80459 2.1191 0.61523 0.06615-0.47773 0.25507-0.8054 0.46289-0.99023-1.6165-0.1867-3.0176-1.2204-3.0176-4.055 0-0.8074 0.58653-1.8677 1.0522-2.3844-0.0751-0.1871-0.32609-1.3393 0.07031-2.3574 0 0 0.03819-0.01202 0.11719-0.01563 0.2369-0.0111 0.7698 0.43835 1.8125 1.1562 0.62954-0.18086 1.435-0.26543 1.938-0.26953 0.56713-0.0047 1.2238 0.09289 1.8156 0.26953 1.043-0.7179 1.7093-1.1692 1.9453-1.1582h2e-3c0.0789 0.0037 0.11719 0.01563 0.11719 0.01563 0.39732 1.0181 0.1469 2.1723 0.07227 2.3594 0.46652 0.5168 1.0476 1.577 1.0476 2.3844 0 2.8418-1.7009 3.8661-3.3223 4.0492 0.26101 0.2284 0.32617 0.68128 0.32617 1.3711 0 0.83312-0.0021 1.3746-0.0039 1.7188v0.74023c3.4566-0.88468 6-4.0003 6-7.7402 0-4.432-3.568-8-8-8z" fill="#414A42"/>
</svg>
